!!!COM: Palestrina, Giovanni Perluigi da
!!!OPR: Missa Ascendo ad Patrem
!!!OTL: Agnus I
**kern	**kern	**kern	**kern	**kern
*Ibass	*Itenor	*Itenor	*Icalto	*Icant
!Bassus	!Tenor 2	!Tenor 1	!Altus	!Cantus
*clefF4	*clefGv2	*clefGv2	*clefG2	*clefG2
*k[]	*k[]	*k[]	*k[]	*k[]
*C:ion	*C:ion	*C:ion	*C:ion	*C:ion
*M4/2	*M4/2	*M4/2	*M4/2	*M4/2
=1	=1	=1	=1	=1
0r	0r	0r	1r	1.g
.	.	.	[1c	.
.	.	.	.	2g
=2	=2	=2	=2	=2
0r	0r	2r	2c]	1gg
.	.	1c	2c	.
.	.	.	1cc	1ee
.	.	2c	.	.
=3	=3	=3	=3	=3
0r	0r	1g	2b	1dd
.	.	.	2b	.
.	.	2e	2cc	2ee
.	.	2d	[2dd	2ff
=4	=4	=4	=4	=4
0r	0r	2e	4dd]	2gg
.	.	.	4cc	.
.	.	2f	1cc	4ff
.	.	.	.	4ee
.	.	2.g	.	2dd
.	.	.	4b	[2gg
.	.	4f	4a	.
=5	=5	=5	=5	=5
0r	0r	4e	2b	4gg]
.	.	4d	.	4ff
.	.	4c	2cc	4ee
.	.	4B	.	4dd
.	.	4c	[1g	4ee
.	.	4d	.	4dd
.	.	2e	.	[2cc
=6	=6	=6	=6	=6
1r	1.G	1d	0g]	2cc]
.	.	.	.	2b
[1C	.	[1e	.	[1cc
.	2G	.	.	.
=7	=7	=7	=7	=7
2C]	1g	1e]	2r	0cc]
2C	.	.	1g	.
1c	1e	2r	.	.
.	.	2c	2g	.
=8	=8	=8	=8	=8
1A	1c	2e	1.cc	0r
.	.	2f	.	.
1G	2d	1g	.	.
.	2e	.	2b	.
=9	=9	=9	=9	=9
2A	2f	2c	2a	0r
2B	2.g	2G	4g	.
.	.	.	4f	.
2.c	.	1g	4e	.
.	4f	.	4d	.
.	4e	.	4c	.
4B	4d	.	4d	.
=10	=10	=10	=10	=10
4A	0c	2.a	2e	1.cc
4G	.	.	.	.
4F	.	.	4f	.
4E	.	4g	4g	.
4F	.	2f	4a	.
4G	.	.	4b	.
2A	.	4e	[2cc	2cc
.	.	4f#	.	.
=11	=11	=11	=11	=11
1G	1d	1g	2cc]	1gg
.	.	.	2b	.
1C	2c	1g	2cc	2ee
.	2e	.	2g	2gg
=12	=12	=12	=12	=12
0r	2d	0r	2a	2ff#
.	2g	.	2b	2gg
.	1c	.	1cc	4ee
.	.	.	.	4ff
.	.	.	.	4gg
.	.	.	.	4ee
=13	=13	=13	=13	=13
0r	2d	0r	2a	2ff
.	2e	.	2g	2ee
.	2.f	.	2.a	2cc
.	.	.	.	[2dd
.	4g	.	4g	.
=14	=14	=14	=14	=14
1r	2a	1r	2f	4dd]
.	.	.	.	4cc
.	2g	.	2e	1cc
1G	1g	2r	1d	.
.	.	2g	.	2b
=15	=15	=15	=15	=15
2A	1r	2f	1r	2cc
2B	.	2g	.	4b
.	.	.	.	4a
1c	2r	1e	2r	1g
.	2g	.	2g	.
=16	=16	=16	=16	=16
2A	2f	2c	2a	1r
2G	2g	2d	2b	.
2.A	1e	2c	1cc	2r
.	.	[2A	.	2cc
4G	.	.	.	.
=17	=17	=17	=17	=17
2F	2f	4A]	2a	2dd
.	.	4F	.	.
2E	2g	1c	2g	2ee
1D	2.f	.	2a	1ff
.	.	2B	2d	.
.	8e	.	.	.
.	8d	.	.	.
=18	=18	=18	=18	=18
2C	2g	1c	2r	1ee
2c	2c	.	2g	.
2c	1d	1r	2f	1dd
2B	.	.	2g	.
=19	=19	=19	=19	=19
2.c	1g	1r	2e	2.ee
.	.	.	4c	.
4B	.	.	4d	4dd
2A	1r	2r	4e	2cc
.	.	.	4f	.
2G	.	2d	[2g	2b
=20	=20	=20	=20	=20
1r	0r	2c	2g]	1a
.	.	2d	2f#	.
1G	.	1B	1g	4g
.	.	.	.	4a
.	.	.	.	4b
.	.	.	.	4cc
=21	=21	=21	=21	=21
2F	1r	2A	1d	1dd
2G	.	2B	.	.
1E	2r	4G	2r	1r
.	.	4A	.	.
.	2G	4B	2g	.
.	.	4c	.	.
=22	=22	=22	=22	=22
2D	2A	1d	2f	0r
2G	2B	.	2g	.
4C	1c	1g	1e	.
4D	.	.	.	.
4E	.	.	.	.
4F	.	.	.	.
=23	=23	=23	=23	=23
1G	1B	1g	2d	0r
.	.	.	2e	.
1A	4A	2f	4c	.
.	4B	.	4d	.
.	4c	2e	4e	.
.	4A	.	4f	.
=24	=24	=24	=24	=24
0G	2B	2e	0g	0r
.	1c	4d	.	.
.	.	4c	.	.
.	.	1d	.	.
.	2B	.	.	.
=25	=25	=25	=25	=25
1C	2c	1c	1e	1g
.	2e	.	.	.
2r	2f	1r	1d	2a
[2G	[2g	.	.	[2b-
=26	=26	=26	=26	=26
2G]	2g]	0r	2e	2b-]
2A	2c	.	1f	1a
1B-	1d	.	.	.
.	.	.	4e	[2g
.	.	.	4d	.
=27	=27	=27	=27	=27
1A	2e	1r	1c	2g]
.	1c	.	.	2f#
1G	.	[1d	2.d	1g
.	2B	.	.	.
.	.	.	4e	.
=28	=28	=28	=28	=28
2F	2A	2d]	2f	1r
2E	1c	2e	2g	.
1D	.	1f	2a	1dd
.	2B	.	2d	.
=29	=29	=29	=29	=29
1C	1c	1e	2r	1ee
.	.	.	2g	.
1r	1r	1d	2a	1ff
.	.	.	2b	.
=30	=30	=30	=30	=30
0r	2r	2c	2cc	2ee
.	2d	2B	2g	2.dd
.	2e	1A	1a	.
.	.	.	.	4cc
.	2f	.	.	[2cc
=31	=31	=31	=31	=31
1r	1g	1G	1d	4cc]
.	.	.	.	4b
.	.	.	.	2.b
2r	2e	2c	2e	.
.	.	.	.	4a
[2D	2d	2d	[2f	[2a
=32	=32	=32	=32	=32
2D]	1r	1B	2f]	2a]
2E	.	.	2.e	2g
1F	2r	1A	.	1a
.	.	.	4d	.
.	2d	.	[2d	.
=33	=33	=33	=33	=33
1E	1e	2r	2d]	1r
.	.	2G	2c#	.
1D	1f	2A	1d	2r
.	.	2B	.	2dd
=34	=34	=34	=34	=34
1C	1e	1c	1g	1ee
2.D	1d	2.A	2f	[1ff
.	.	.	[2a	.
4E	.	4G	.	.
=35	=35	=35	=35	=35
2F	2c	2A	2a]	2ff]
2G	2B	4B	1g	2ee
.	.	4c	.	.
1D	1A	1d	.	1dd
.	.	.	2f#	.
=36	=36	=36	=36	=36
0G	0G	0d	0g	0b
==	==	==	==	==
*-	*-	*-	*-	*-
!!!CDT: 1525/^1526/-1594/2/2
!!!OCY: Italia
!!!AGN: Mass (Parody)
!!!AST: renaissance, vocal
!!!ASW: Motet 1572 (Palestrina)
!!!PWK: Masses, Book 12
!!!RNB: Cadence finals: G,D
!!!YOR: Le Opere Complete, v. 29, p. 54
!!!YOO: Rome, Italy: Fratelli Scalera
!!!END: 1992//
!!!EED: John Miller
!!!YEC: Copyright 2000, John Miller
!!!YEN: United States of America
!!!YEM: Rights to all derivative electronic formats reserved.
!!!YEM: Refer to licensing agreement for further details.
!!!YEM: This file must be accompanied by the licensing agreement.
!!!YEM: A copy of the licensing agreement may be found at http://www.music-cog.ohio-state.edu/HumdrumDatabases/Palestrina/license.txt
!!!EMD: converted to Humdrum by Bret Aarden
